X:1
T:Title
%%score 1 2
L:1/8
M:6/4
K:Eb
V:1 treble nm="Choir Aahs, Staff"
V:2 bass nm="Choir Aahs, Staff-1"
V:1
 E2 B,2 E2 [EG]3 [DF] E2 | [EG]2 [EG]2 [F=A]2 [FB]2 .[FB]4 | [EB]2 [EB]2 [FB]2 [Ee]2 [FB]2 [EG]2 | %3
w: By~Johann~Georg~Hille,~1730 * * * * *|||
 [Ec]2 [EB]2 [EG]2 .[DF]6 | [DF]2 [CF]2 [=A,F]2 [B,D]2 B,2 [FB]2 | [FA]2 [FB]2 [EG]2 [EF]2 .[DF]4 | %6
w: |||
 E2 [EG]2 [FB]2 [Ee]2 [EB]2 [CA]2 | [EG]2 [EA]2 [DF]2 .E6 |] %8
w: ||
V:2
 E,2 B,,2 E,2 [E,B,]3 [F,A,] [G,B,]2 | [E,B,]2 [C,C]2 [F,C]2 [B,,D]2 .[B,,D]4 | %2
 [E,G,]2 [E,G,]2 [D,B,]2 [C,C]2 [D,B,]2 [E,B,]2 | [A,,A,]2 [E,G,]2 [E,B,]2 .[B,,B,]6 | %4
 [B,,F,]2 [=A,,F,]2 [F,,F,]2 [B,,F,]2 [B,,D,]2 [D,B,]2 | %5
 [F,C]2 [D,B,]2 [E,B,]2 [B,,B,]2 .[B,,B,]4 | [G,B,]2 [E,B,]2 [D,B,]2 [C,C]2 [E,G,]2 [F,A,]2 | %7
 [E,B,]2 [A,,C]2 [B,,B,]2 .[E,G,]6 |] %8

